!!!COM: Palestrina, Giovanni Perluigi da
!!!OPR: Missa Veni creator Spiritus
!!!OMD: Sanctus
!!!OTL: Hosanna
**kern	**kern	**kern	**kern	**kern	**kern
*Ibass	*Itenor	*Itenor	*Icalto	*Icant	*Icant
!Bassus	!Tenor 2	!Tenor 1	!Altus	!Cantus 2	!Cantus 1
*clefF4	*clefGv2	*clefGv2	*clefG2	*clefG2	*clefG2
*k[]	*k[]	*k[]	*k[]	*k[]	*k[]
*G:mix	*G:mix	*G:mix	*G:mix	*G:mix	*G:mix
*M3/2	*M3/2	*M3/2	*M3/2	*M3/2	*M3/2
=43	=43	=43	=43	=43	=43
2G	2G	1g	2g	1.dd	1.b
2G	2d	.	2g	.	.
2G	2d	2r	2g	.	.
=44	=44	=44	=44	=44	=44
2.F	2.f	1r	2.a	1r	1.cc
4G	4e	.	4g	.	.
2A	2c	2r	2e	2r	.
=45	=45	=45	=45	=45	=45
2D	2d	1r	2.f	2ff	1.a
1F	2c	.	.	2ff	.
.	.	.	4e	.	.
.	4A	2r	2c	2ff	.
.	4B	.	.	.	.
=46	=46	=46	=46	=46	=46
1C	4c	2c	1e	2.ee	1.g
.	4d	.	.	.	.
.	4e	2c	.	.	.
.	4f	.	.	4dd	.
2r	2g	2e	2e	4b	.
.	.	.	.	4cc	.
=47	=47	=47	=47	=47	=47
1r	1a	2.d	2r	2dd	1.f
.	.	.	2f	2a	.
.	.	4c	.	.	.
2r	2r	2B-	2d	2dd	.
=48	=48	=48	=48	=48	=48
1r	1r	2A	2e	2cc	1.a
.	.	1d	2f	1dd	.
2r	2r	.	2f	.	.
=49	=49	=49	=49	=49	=49
2C	2e	1.c	1g	1.ee	1.cc
2C	2e	.	.	.	.
2C	2e	.	2g	.	.
=50	=50	=50	=50	=50	=50
2.G	2.d	1r	2g	1r	1.b
.	.	.	2g	.	.
4A	4c	.	.	.	.
2B	2d	2r	2g	2r	.
=51	=51	=51	=51	=51	=51
2c	2e	1r	2e	2r	1.a
1d	1f#	.	2d	2dd	.
.	.	2r	2a	2dd	.
=52	=52	=52	=52	=52	=52
1G	2g	2d	1.b	1dd	[1.g
.	2G	2d	.	.	.
2r	2G	2d	.	2dd	.
=53	=53	=53	=53	=53	=53
2G	2B	2.G	2r	2.b	1.g_
2G	1d	.	2g	.	.
.	.	4A	.	4cc	.
2G	.	2B	2g	2dd	.
=54	=54	=54	=54	=54	=54
2.C	2.c	2c	2.e	2.ee	1.g_
.	.	2.e	.	.	.
4D	8B	.	4f	4dd	.
.	8A	.	.	.	.
2E	2G	.	2g	2b	.
.	.	4f	.	.	.
=55	=55	=55	=55	=55	=55
2C	1c	2.g	2e	2cc	1.g]
1G	.	.	1d	2dd	.
.	.	4f	.	.	.
.	2B	2d	.	[2gg	.
=56	=56	=56	=56	=56	=56
1.C	2c	2e	2c	4gg]	[1.g
.	.	.	.	4ff	.
.	2.G	1c	1cc	1ee	.
.	4A	.	.	.	.
=57	=57	=57	=57	=57	=57
1.G	1.B	1.d	1.b	1.dd	1.g]
==	==	==	==	==	==
*-	*-	*-	*-	*-	*-
!!!CDT: 1525/^1526/-1594/2/2
!!!OCY: Italia
!!!AGN: Mass (Tenor)
!!!AST: renaissance, vocal
!!!ASW: Hymn
!!!PWK: Masses, Book 9
!!!RNB: Cadence finals: C,D
!!!YOR: Le Opere Complete, v. 25, p. 246
!!!YOO: Rome, Italy: Fratelli Scalera
!!!END: 1992//
!!!EED: John Miller
!!!YEC: Copyright 2000, John Miller
!!!YEN: United States of America
!!!YEM: Rights to all derivative electronic formats reserved.
!!!YEM: Refer to licensing agreement for further details.
!!!YEM: This file must be accompanied by the licensing agreement.
!!!YEM: A copy of the licensing agreement may be found at http://www.music-cog.ohio-state.edu/HumdrumDatabases/Palestrina/license.txt
!!!EMD: converted to Humdrum by Bret Aarden
